X: 1
T: J.O. Forbes of Corse
M: c
L: 1/8
K: Emaj
A|G>B E>G A>c F>A|G<B c>d e3d|c>e B>e A>e G>e|F<f f>e d/e/d/c/ B/c/B/A/|
G>B E>G A>c F>A|G<B c>d e3d|c>e B>e A>e G>e|G>E F<D E3 a||
g/a/b/a/ g<e c<e a<c'|B<e g>b B<d f>a|g/a/b/a/ g<e c>e a<c|b<e g>f e2 e>a|
g/a/b/a/ g<e c<e a<c'|B<e g>b B<d f>a|(3gfe (3def (3eBA (3GAB|(3cde (3def g<e e|]
